Resources/Public/Images/Icons/Glyphicons/list-alt.svg

<svg xmlns="http://www.w3.org/2000/svg" width="32" height="32"><path d="M2 1h28c.2 0 .3.1.5.2s.2.3.2.4v28.7c0 .2-.1.3-.2.4-.2.2-.3.3-.5.3H2c-.2 0-.3-.1-.5-.2s-.2-.3-.2-.4V1.6c0-.2.1-.3.2-.4.2-.1.3-.2.5-.2zm25.3 5H4.7c-.2 0-.4.1-.5.2-.1.1-.2.3-.2.4v21.2c0 .2.1.3.2.4.1.1.3.2.5.2h22.7c.2 0 .3-.1.5-.2s.1-.2.1-.3V6.6c0-.2-.1-.3-.2-.4-.1-.1-.3-.2-.5-.2zm-20 2.5h1.3c.2 0 .3.1.5.2s.2.3.2.4v1.2c0 .2-.1.3-.2.4s-.3.3-.4.3H7.3c-.2 0-.3-.1-.5-.2s-.2-.3-.2-.4V9.1c0-.2.1-.3.2-.4s.4-.2.5-.2zm5.4 0h12c.2 0 .3.1.5.2s.2.3.2.4v1.2c0 .2-.1.3-.2.4-.2.2-.4.3-.5.3h-12c-.2 0-.3-.1-.5-.2s-.2-.3-.2-.4V9.1c0-.2.1-.3.2-.4s.3-.2.5-.2zm-5.4 5h1.3c.2 0 .3.1.5.2s.2.3.2.4v1.2c0 .2-.1.3-.2.4-.1.2-.3.3-.4.3H7.3c-.2 0-.3-.1-.5-.2-.1-.1-.2-.3-.2-.4v-1.2c0-.2.1-.3.2-.4.2-.2.4-.3.5-.3zm5.4 0h12c.2 0 .3.1.5.2s.2.3.2.4v1.2c0 .2-.1.3-.2.4-.2.2-.4.3-.5.3h-12c-.2 0-.3-.1-.5-.2-.1-.1-.2-.3-.2-.4v-1.2c0-.2.1-.3.2-.4.1-.2.3-.3.5-.3zm-5.4 5h1.3c.2 0 .3.1.5.2.1.1.2.3.2.4v1.2c0 .2-.1.3-.2.4s-.3.3-.4.3H7.3c-.2 0-.3-.1-.5-.2s-.2-.3-.2-.4v-1.2c0-.2.1-.3.2-.4.2-.2.4-.3.5-.3zm5.4 0h12c.2 0 .3.1.5.2.1.1.2.3.2.4v1.2c0 .2-.1.3-.2.4-.2.2-.4.3-.5.3h-12c-.2 0-.3-.1-.5-.2s-.2-.3-.2-.4v-1.2c0-.2.1-.3.2-.4.1-.2.3-.3.5-.3zm-5.4 5h1.3c.2 0 .3.1.5.2.1.1.2.3.2.4v1.2c0 .2-.1.3-.2.4s-.3.3-.4.3H7.3c-.2 0-.3-.1-.5-.2s-.2-.3-.2-.4v-1.2c0-.2.1-.3.2-.4s.4-.3.5-.3zm5.4 0h12c.2 0 .3.1.5.2.1.1.2.3.2.4v1.2c0 .2-.1.3-.2.4-.2.2-.4.3-.5.3h-12c-.2 0-.3-.1-.5-.2s-.2-.3-.2-.4v-1.2c0-.2.1-.3.2-.4s.3-.3.5-.3z"/></svg>

<?xml version="1.0" encoding="utf-8"?>
<!-- Generator: Adobe Illustrator 22.1.0, SVG Export Plug-In . SVG Version: 6.00 Build 0)  -->
<svg version="1.1" id="Ebene_1" xmlns="http://www.w3.org/2000/svg" xmlns:xlink="http://www.w3.org/1999/xlink" x="0px" y="0px"
	 width="32px" height="32px" viewBox="0 0 32 32" style="enable-background:new 0 0 32 32;" xml:space="preserve">
<path d="M2,1h28c0.2,0,0.3,0.1,0.5,0.2s0.2,0.3,0.2,0.4v28.7c0,0.2-0.1,0.3-0.2,0.4C30.3,30.9,30.2,31,30,31H2
	c-0.2,0-0.3-0.1-0.5-0.2s-0.2-0.3-0.2-0.4V1.6c0-0.2,0.1-0.3,0.2-0.4C1.7,1.1,1.8,1,2,1z M27.3,6H4.7C4.5,6,4.3,6.1,4.2,6.2
	C4.1,6.3,4,6.5,4,6.6v21.2c0,0.2,0.1,0.3,0.2,0.4c0.1,0.1,0.3,0.2,0.5,0.2h22.7c0.2,0,0.3-0.1,0.5-0.2S28,28,28,27.9V6.6
	c0-0.2-0.1-0.3-0.2-0.4C27.7,6.1,27.5,6,27.3,6z M7.3,8.5h1.3c0.2,0,0.3,0.1,0.5,0.2S9.3,9,9.3,9.1v1.2c0,0.2-0.1,0.3-0.2,0.4
	S8.8,11,8.7,11H7.3c-0.2,0-0.3-0.1-0.5-0.2s-0.2-0.3-0.2-0.4V9.1c0-0.2,0.1-0.3,0.2-0.4S7.2,8.5,7.3,8.5z M12.7,8.5h12
	c0.2,0,0.3,0.1,0.5,0.2s0.2,0.3,0.2,0.4v1.2c0,0.2-0.1,0.3-0.2,0.4C25,10.9,24.8,11,24.7,11h-12c-0.2,0-0.3-0.1-0.5-0.2
	S12,10.5,12,10.4V9.1c0-0.2,0.1-0.3,0.2-0.4S12.5,8.5,12.7,8.5z M7.3,13.5h1.3c0.2,0,0.3,0.1,0.5,0.2s0.2,0.3,0.2,0.4v1.2
	c0,0.2-0.1,0.3-0.2,0.4C9,15.9,8.8,16,8.7,16H7.3c-0.2,0-0.3-0.1-0.5-0.2c-0.1-0.1-0.2-0.3-0.2-0.4v-1.2c0-0.2,0.1-0.3,0.2-0.4
	C7,13.6,7.2,13.5,7.3,13.5z M12.7,13.5h12c0.2,0,0.3,0.1,0.5,0.2s0.2,0.3,0.2,0.4v1.2c0,0.2-0.1,0.3-0.2,0.4
	C25,15.9,24.8,16,24.7,16h-12c-0.2,0-0.3-0.1-0.5-0.2c-0.1-0.1-0.2-0.3-0.2-0.4v-1.2c0-0.2,0.1-0.3,0.2-0.4
	C12.3,13.6,12.5,13.5,12.7,13.5z M7.3,18.5h1.3c0.2,0,0.3,0.1,0.5,0.2c0.1,0.1,0.2,0.3,0.2,0.4v1.2c0,0.2-0.1,0.3-0.2,0.4
	S8.8,21,8.7,21H7.3c-0.2,0-0.3-0.1-0.5-0.2s-0.2-0.3-0.2-0.4v-1.2c0-0.2,0.1-0.3,0.2-0.4C7,18.6,7.2,18.5,7.3,18.5z M12.7,18.5h12
	c0.2,0,0.3,0.1,0.5,0.2c0.1,0.1,0.2,0.3,0.2,0.4v1.2c0,0.2-0.1,0.3-0.2,0.4C25,20.9,24.8,21,24.7,21h-12c-0.2,0-0.3-0.1-0.5-0.2
	S12,20.5,12,20.4v-1.2c0-0.2,0.1-0.3,0.2-0.4C12.3,18.6,12.5,18.5,12.7,18.5z M7.3,23.5h1.3c0.2,0,0.3,0.1,0.5,0.2
	c0.1,0.1,0.2,0.3,0.2,0.4v1.2c0,0.2-0.1,0.3-0.2,0.4S8.8,26,8.7,26H7.3c-0.2,0-0.3-0.1-0.5-0.2s-0.2-0.3-0.2-0.4v-1.2
	c0-0.2,0.1-0.3,0.2-0.4S7.2,23.5,7.3,23.5z M12.7,23.5h12c0.2,0,0.3,0.1,0.5,0.2c0.1,0.1,0.2,0.3,0.2,0.4v1.2c0,0.2-0.1,0.3-0.2,0.4
	C25,25.9,24.8,26,24.7,26h-12c-0.2,0-0.3-0.1-0.5-0.2S12,25.5,12,25.4v-1.2c0-0.2,0.1-0.3,0.2-0.4S12.5,23.5,12.7,23.5z"/>
</svg>
